src/assets/social-media/github.svg

<svg fill="none" height="24" viewBox="0 0 25 24" width="25" xmlns="http://www.w3.org/2000/svg" xmlns:xlink="http://www.w3.org/1999/xlink"><radialGradient id="a" cx="0" cy="0" gradientTransform="matrix(0 20.9909 -18.8107 0 12.3334 1.50452)" gradientUnits="userSpaceOnUse" r="1"><stop offset="0" stop-color="#fff"/><stop offset="1" stop-color="#fff" stop-opacity=".3"/></radialGradient><path d="m20.3855 5.08251c.8349-1.55046-.1192-3.57799-.1192-3.57799-2.1468 0-3.6973 1.43118-3.6973 1.43118-.8349-.47707-3.578-.47707-3.578-.47707s-2.7431 0-3.57798.47707c0 0-1.55046-1.43118-3.69726-1.43118 0 0-.95414 2.02753-.11928 3.57799 0 0-1.90825 1.78901-1.19266 5.60549.67245 3.5864 3.81652 4.5322 5.84408 4.5322 0 0-.8349.7156-.71563 1.9082 0 0-1.19266.7156-2.38533.2385-1.19266-.477-1.789-1.6697-1.789-1.6697s-1.19267-1.5505-2.38533-.9541c0 0-.3578.3578.95414.9541 0 0 .95414 1.4312 1.31194 2.2661.35779.8348 2.26605 1.5504 4.17433 1.0734v2.7431s0 .2385-.47707.3578-.47707.3578-.23852.3578h8.58717c.2385 0 .2385-.2385-.2385-.3578-.4771-.1193-.4771-.3578-.4771-.3578v-2.7431s.0105-1.4304 0-1.9083c-.0262-1.1983-.8349-1.9083-.8349-1.9083 2.0276 0 5.1716-.9457 5.8441-4.5321.7156-3.81648-1.1927-5.60549-1.1927-5.60549z" fill="url(#a)"/></svg>

<svg width="25" height="24" viewBox="0 0 25 24" fill="none" xmlns="http://www.w3.org/2000/svg">
<path d="M20.3855 5.08251C21.2204 3.53205 20.2663 1.50452 20.2663 1.50452C18.1195 1.50452 16.569 2.9357 16.569 2.9357C15.7341 2.45863 12.991 2.45863 12.991 2.45863C12.991 2.45863 10.2479 2.45863 9.41302 2.9357C9.41302 2.9357 7.86256 1.50452 5.71576 1.50452C5.71576 1.50452 4.76162 3.53205 5.59648 5.08251C5.59648 5.08251 3.68823 6.87152 4.40382 10.688C5.07627 14.2744 8.22034 15.2202 10.2479 15.2202C10.2479 15.2202 9.413 15.9358 9.53227 17.1284C9.53227 17.1284 8.33961 17.844 7.14694 17.3669C5.95428 16.8899 5.35794 15.6972 5.35794 15.6972C5.35794 15.6972 4.16527 14.1467 2.97261 14.7431C2.97261 14.7431 2.61481 15.1009 3.92675 15.6972C3.92675 15.6972 4.88089 17.1284 5.23869 17.9633C5.59648 18.7981 7.50474 19.5137 9.41302 19.0367V21.7798C9.41302 21.7798 9.41302 22.0183 8.93595 22.1376C8.45888 22.2569 8.45888 22.4954 8.69743 22.4954H17.2846C17.5231 22.4954 17.5231 22.2569 17.0461 22.1376C16.569 22.0183 16.569 21.7798 16.569 21.7798V19.0367C16.569 19.0367 16.5795 17.6063 16.569 17.1284C16.5428 15.9301 15.7341 15.2201 15.7341 15.2201C17.7617 15.2201 20.9057 14.2744 21.5782 10.688C22.2938 6.87152 20.3855 5.08251 20.3855 5.08251Z" fill="url(#paint0_radial_7462_3959)"/>
<defs>
<radialGradient id="paint0_radial_7462_3959" cx="0" cy="0" r="1" gradientUnits="userSpaceOnUse" gradientTransform="translate(12.3334 1.50452) rotate(90) scale(20.9909 18.8107)">
<stop stop-color="white"/>
<stop offset="1" stop-color="white" stop-opacity="0.3"/>
</radialGradient>
</defs>
</svg>
